packages/gui/src/assets/img/audio.svg

<?xml version="1.0" encoding="UTF-8" standalone="no"?>
<svg
   width="24"
   height="24"
   viewBox="0 0 24 24"
   fill="none"
   version="1.1"
   id="svg1"
   xmlns="http://www.w3.org/2000/svg"
   xmlns:svg="http://www.w3.org/2000/svg">
  <defs
     id="defs1" />
  <path
     fill-rule="evenodd"
     clip-rule="evenodd"
     d="M 20,2.00001 C 20,1.70348 19.8684,1.42225 19.6407,1.23226 19.4131,1.04226 19.1129,0.963095 18.8211,1.01614 l -10.99999,2 C 7.34562,3.10259 7,3.51672 7,4.00001 V 15.5351 C 6.41165,15.1948 5.72857,15 5,15 c -2.20914,0 -4,1.7909 -4,4 0,2.2091 1.79086,4 4,4 2.20914,0 4,-1.7909 4,-4 V 8.83458 L 18,7.19822 V 13.5351 C 17.4117,13.1948 16.7286,13 16,13 c -2.2091,0 -4,1.7909 -4,4 0,2.2091 1.7909,4 4,4 2.2091,0 4,-1.7909 4,-4 z M 18,17 c 0,-1.1046 -0.8954,-2 -2,-2 -1.1046,0 -2,0.8954 -2,2 0,1.1046 0.8954,2 2,2 1.1046,0 2,-0.8954 2,-2 z M 7,19 c 0,-1.1046 -0.89543,-2 -2,-2 -1.10457,0 -2,0.8954 -2,2 0,1.1046 0.89543,2 2,2 1.10457,0 2,-0.8954 2,-2 z M 18,5.16543 9,6.8018 V 4.83458 l 9,-1.63636 z"
     fill="#3AAC59"
     id="path1"
     style="fill:#853aac;fill-opacity:1" />
</svg>

<svg width="24" height="24" viewBox="0 0 24 24" fill="none" xmlns="http://www.w3.org/2000/svg">
<path fill-rule="evenodd" clip-rule="evenodd" d="M20 2.00001C20 1.70348 19.8684 1.42225 19.6407 1.23226C19.4131 1.04226 19.1129 0.963095 18.8211 1.01614L7.82111 3.01614C7.34562 3.10259 7 3.51672 7 4.00001V15.5351C6.41165 15.1948 5.72857 15 5 15C2.79086 15 1 16.7909 1 19C1 21.2091 2.79086 23 5 23C7.20914 23 9 21.2091 9 19V8.83458L18 7.19822V13.5351C17.4117 13.1948 16.7286 13 16 13C13.7909 13 12 14.7909 12 17C12 19.2091 13.7909 21 16 21C18.2091 21 20 19.2091 20 17V2.00001ZM18 17C18 15.8954 17.1046 15 16 15C14.8954 15 14 15.8954 14 17C14 18.1046 14.8954 19 16 19C17.1046 19 18 18.1046 18 17ZM7 19C7 17.8954 6.10457 17 5 17C3.89543 17 3 17.8954 3 19C3 20.1046 3.89543 21 5 21C6.10457 21 7 20.1046 7 19ZM18 5.16543L9 6.8018V4.83458L18 3.19822V5.16543Z" fill="#3AAC59"/>
</svg>
